X:140
M:6/8
L:1/8
K:A Minor
E|:A2A c2d|B2A B2d|A2A e2e|fed e2B|
c2c d2c|B2A B2d|fed e2B|1 c2A ^G^FE:|2A2B c2||
E2E E2D|E2E c2d|B2A ^G2B|(A3 A2)||

